X:18
T:Pitt's Fancy
M:6/8
L:1/8
B:Thompson's Compleat Collection of 200 Favourite Country Dances, vol. 2 (London, 1765)
Z:Transcribed and edited by Flynn Titford-Mock, 2007
Z:abc's:AK/Fiddler's Companion
K:Bb
F | DFB BdB | f2d f2d | DFB BdB | f3 d2F | DFB BdB | f2d f2d | e2c d2A | B3 [B,2B2] :|
|: f | fgf efe | ded cdc | BcB ABA | c3 F2E | DFB Bdf | b2f g2e | def FBA | B3 [B,2B2] :|

